dist/svg/static/lights-led-small.svg

<svg xmlns="http://www.w3.org/2000/svg" width="24" height="24" viewBox="0 0 24 24"><g fill="none" stroke="currentColor" stroke-miterlimit="10"><path d="M7 13.5h1m1 0h1m1 0h1m1 0h1m1 0h1m1-1h1m1-1h1m-1-2h1m-8.097-.223s.286 1.292 3.13 1.292c3.084 0 1.793-3.293 1.793-3.293"/><path d="M10.792 17.61S6.398 19.276.85 12.481l22.108-7.204-1.145 8.286s-.227 1.65-1.167 1.83z"/></g></svg>

<?xml version="1.0" encoding="UTF-8" standalone="no"?>
<svg width="24px" height="24px" viewBox="0 0 24 24" version="1.1" xmlns="http://www.w3.org/2000/svg" xmlns:xlink="http://www.w3.org/1999/xlink">
    <!-- Generator: sketchtool 46.2 (44496) - http://www.bohemiancoding.com/sketch -->
    <title>lights-led-small</title>
    <desc>Created with sketchtool.</desc>
    <defs></defs>
    <g id="icons-published" stroke="none" stroke-width="1" fill="none" fill-rule="evenodd">
        <g id="briefing" transform="translate(-1508.000000, -922.000000)"></g>
        <g id="lights-led-small" stroke="#000000">
            <path d="M7,13.5 L8,13.5 M9,13.5 L10,13.5 M11,13.5 L12,13.5 M13,13.5 L14,13.5 M15,13.5 L16,13.5 M17,12.5 L18,12.5 M19,11.5 L20,11.5 M19,9.5 L20,9.5 M11.9,9.3 C11.9,9.3 12.2,10.6 15,10.6 C18.1,10.6 16.8,7.3 16.8,7.3" id="Shape"></path>
            <path d="M10.8,17.6 C10.8,17.6 6.4,19.3 0.9,12.5 L23,5.3 L21.9,13.6 C21.9,13.6 21.7,15.2 20.7,15.4 L10.8,17.6 Z" id="Shape"></path>
        </g>
    </g>
</svg>
